src/_includes/svg/bridge.svg

<svg width="47" height="26" viewBox="0 0 47 26" fill="none" xmlns="http://www.w3.org/2000/svg"><path d="M0 12.2854V26H4.27273C4.27273 21.2118 8.10109 17.3076 12.8182 17.3076C17.531 17.3076 21.3551 21.2205 21.3636 26H25.6364C25.6364 21.2118 29.4605 17.3076 34.1775 17.3076C36.4456 17.3179 38.6176 18.2377 40.2194 19.8662C41.8212 21.4947 42.7228 23.6998 42.7273 26H47V12.2854C34.5365 -5.17311 10.2075 -2.98051 0 12.2854ZM8.54545 13.0004H2.13636C3.92369 10.6075 6.08934 8.53127 8.54545 6.85588V13.0004ZM17.0909 13.0004H10.6818V5.47359C12.7088 4.37223 14.8612 3.52674 17.0909 2.95599V13.0004ZM25.6364 13.0004H19.2273V2.50534C21.3465 2.15435 23.5 2.06335 25.6364 2.23668V13.0004ZM34.1818 13.0004H27.7727V2.50967C29.9817 2.87366 32.1309 3.51497 34.1818 4.42062V13.0004ZM36.3182 13.0004V5.47792C39.664 7.33721 42.578 9.90233 44.8636 13.0004H36.3182Z" fill="currentColor"/></svg>

<svg class="bridge" xmlns="http://www.w3.org/2000/svg" aria-hidden="true" viewBox="0 0 47 26"><path d="M0 12.285V26h4.273c0-4.788 3.828-8.692 8.545-8.692 4.713 0 8.537 3.913 8.546 8.692h4.272c0-4.788 3.825-8.692 8.542-8.692 2.268.01 4.44.93 6.041 2.558A8.773 8.773 0 0142.727 26H47V12.285c-12.464-17.458-36.793-15.266-47 0zM8.545 13H2.136a26.976 26.976 0 016.41-6.144V13zm8.546 0h-6.41V5.474a27.933 27.933 0 016.41-2.518V13zm8.545 0h-6.409V2.505a26.245 26.245 0 016.41-.268V13zm8.546 0h-6.41V2.51a26.53 26.53 0 016.41 1.91V13zm2.136 0V5.478A26.805 26.805 0 0144.864 13h-8.546z" fill="currentColor"/></svg>
